X:488
T: NU FALL DU REIF
N: E0447
O: Europa, Mitteleuropa, Deutschland
R: Liebes - Lied, Untreue
M: 4/4
L: 1/4
K: A
E | AABB | ccc
B | ABcd | e3
e | cccB | ABc
c | BAAB | A3

